public/assets/formheimur/gotur.svg

<svg viewBox="0 0 379 281" fill="none" xmlns="http://www.w3.org/2000/svg" class="formheimur-gotur"><style>.formheimur-gotur {
		--litur1: var(--theme-color-primary, #dcddde);
		--litur2: var(--theme-color-secondary, #ebeced);
		--litur3: var(--theme-color-tertiary, #f3f4f5);
	}

	/* Frávik */
	[data-color-theme=&apos;trustworthy&apos;] .formheimur-gotur,
	[data-color-theme=&apos;dependable&apos;] .formheimur-gotur {
		--litur2: white;
	}
	[data-color-theme=&apos;friendly&apos;] .formheimur-gotur,
	[data-color-theme=&apos;lively&apos;] .formheimur-gotur {
		--litur1: var(--theme-color-secondary);
		--litur2: var(--theme-color-tertiary);
		--litur3: var(--theme-color-primary);
	}
	[data-color-theme=&apos;colorful&apos;] .formheimur-gotur {
		--litur1: var(--theme-color-secondary);
		--litur2: var(--theme-color-primary);
	}</style><path d="M379 0H0V281H379V0Z" fill="var(--litur3)"/><path d="M255.596 143.111C228.474 190.174 245.428 251.35 292.3 278.46C293.846 279.354 295.41 280.2 296.985 281H379V217.121C366.662 236.019 340.108 242.71 319.705 230.911C298.617 218.713 291.322 190.938 303.061 170.567H303.063C330.186 123.504 313.234 62.3301 266.359 35.2184C219.487 8.10897 158.123 23.9874 131 71.0503L178.467 98.5041C190.208 78.131 217.866 70.5737 238.956 82.7693C260.042 94.9649 267.338 122.74 255.599 143.113L255.596 143.111Z" fill="var(--litur1)"/><path d="M76.3829 281L152 149.688L100.712 120L8 281H76.3829Z" fill="var(--litur2)"/></svg>

<svg viewBox="0 0 379 281" fill="none" xmlns="http://www.w3.org/2000/svg" class="formheimur-gotur"><style>.formheimur-gotur{--litur1: var(--theme-color-primary, #dcddde);--litur2: var(--theme-color-secondary, #ebeced);--litur3: var(--theme-color-tertiary, #f3f4f5)}[data-color-theme=dependable] .formheimur-gotur,[data-color-theme=trustworthy] .formheimur-gotur{--litur2: white}[data-color-theme=friendly] .formheimur-gotur,[data-color-theme=lively] .formheimur-gotur{--litur1: var(--theme-color-secondary);--litur2: var(--theme-color-tertiary);--litur3: var(--theme-color-primary)}[data-color-theme=colorful] .formheimur-gotur{--litur1: var(--theme-color-secondary);--litur2: var(--theme-color-primary)}</style><path d="M379 0H0v281h379V0z" fill="var(--litur3)"/><path d="M255.596 143.111C228.474 190.174 245.428 251.35 292.3 278.46c1.546.894 3.11 1.74 4.685 2.54H379v-63.879c-12.338 18.898-38.892 25.589-59.295 13.79-21.088-12.198-28.383-39.973-16.644-60.344h.002c27.123-47.063 10.171-108.237-36.704-135.349C219.487 8.11 158.123 23.988 131 71.05l47.467 27.454c11.741-20.373 39.399-27.93 60.489-15.735 21.086 12.196 28.382 39.971 16.643 60.344l-.003-.002z" fill="var(--litur1)"/><path d="M76.383 281L152 149.688 100.712 120 8 281h68.383z" fill="var(--litur2)"/></svg>
